assets/Badminton/Flat/badminton_flat.svg

<svg width="32" height="32" viewBox="0 0 32 32" fill="none" xmlns="http://www.w3.org/2000/svg">
<path d="M6.61578 29.32C6.03578 28.98 5.8358 28.24 6.1658 27.65L12.8558 16.07L14.9758 17.29L8.28579 28.87C7.94579 29.45 7.19578 29.65 6.61578 29.32Z" fill="#0074BA"/>
<path d="M6.1658 27.65C5.8358 28.24 6.03578 28.98 6.61578 29.32C7.19578 29.65 7.94579 29.45 8.28579 28.87L11.1869 23.8483L9.07108 22.6211L6.1658 27.65Z" fill="#533566"/>
<path d="M18.9164 1.70922C19.077 1.80355 19.1307 2.01021 19.0364 2.17082L17.9342 4.04737L20.1286 5.31458L21.2347 3.42936C21.3289 3.26871 21.5356 3.21489 21.6962 3.30915C21.8569 3.40341 21.9107 3.61005 21.8164 3.7707L20.7127 5.6519L22.9167 6.92473L24.0248 5.03915C24.1192 4.87856 24.3259 4.82489 24.4864 4.91925C24.647 5.01362 24.7007 5.2203 24.6063 5.38088L23.5009 7.26205L25.1042 8.18799C25.2655 8.28113 25.3208 8.4874 25.2276 8.64869C25.1345 8.80999 24.9282 8.86523 24.7669 8.77209L23.1591 7.84359L21.9098 9.96954L23.9843 11.168C24.1456 11.2612 24.2008 11.4674 24.1076 11.6287C24.0144 11.79 23.8082 11.8452 23.6469 11.752L21.568 10.5511L20.3177 12.6788L22.4141 13.8879C22.5754 13.9809 22.6308 14.1872 22.5377 14.3485C22.4447 14.5099 22.2384 14.5652 22.0771 14.4722L19.9759 13.2604L18.7243 15.3901L20.3841 16.3479C20.5455 16.441 20.6008 16.6472 20.5077 16.8086C20.4146 16.9699 20.2083 17.0252 20.047 16.9321L18.3826 15.9717L17.4663 17.5309C17.372 17.6915 17.1653 17.7451 17.0047 17.6508C16.8441 17.5564 16.7904 17.3497 16.8848 17.1891L17.7984 15.6345L15.5999 14.3659L14.4765 16.2807C14.3822 16.4413 14.1756 16.4951 14.0149 16.4009C13.8543 16.3066 13.8004 16.1 13.8947 15.9393L15.0157 14.0288L12.8171 12.7601L11.9064 14.3108C11.812 14.4714 11.6054 14.5251 11.4448 14.4308C11.2842 14.3365 11.2304 14.1298 11.3248 13.9692L12.2329 12.423L10.637 11.5021C10.4757 11.409 10.4204 11.2028 10.5135 11.0415C10.6066 10.8801 10.8128 10.8248 10.9741 10.9179L12.5745 11.8414L13.8247 9.71272L11.8471 8.57217C11.6857 8.47912 11.6304 8.27288 11.7234 8.11154C11.8165 7.95019 12.0227 7.89483 12.184 7.98788L14.1663 9.13109L15.4187 6.99855L13.4169 5.84203C13.2556 5.74886 13.2004 5.54259 13.2935 5.38131C13.3867 5.22003 13.593 5.16482 13.7543 5.25799L15.7603 6.41692L17.0085 4.29167L15.3469 3.33208C15.1856 3.23894 15.1304 3.03267 15.2235 2.87138C15.3167 2.71008 15.5229 2.65484 15.6842 2.74799L17.3501 3.71004L18.4548 1.82923C18.5491 1.66862 18.7558 1.61489 18.9164 1.70922ZM13.1587 12.1785L15.357 13.447L16.6067 11.3172L14.409 10.0497L13.1587 12.1785ZM15.9412 13.7842L18.1401 15.053L19.3916 12.9234L17.191 11.6542L15.9412 13.7842ZM20.984 10.2137L18.7824 8.94178L17.5323 11.0724L19.7334 12.3418L20.984 10.2137ZM18.1984 8.60436L16.0028 7.33596L14.7506 9.46808L16.948 10.7354L18.1984 8.60436ZM16.3444 6.75434L18.5397 8.02259L19.7872 5.89635L17.5927 4.62899L16.3444 6.75434ZM19.1238 8.36001L21.3257 9.63212L22.575 7.50627L20.3713 6.23367L19.1238 8.36001Z" fill="#BEBEBE"/>
<path d="M12.2961 5.09472C14.3033 1.61625 18.7517 0.423537 22.2302 2.43038L22.2311 2.4309C25.6994 4.43824 26.8911 8.88564 24.896 12.3632L24.8945 12.3658L23.5751 14.6448C23.575 14.645 23.5752 14.6446 23.5751 14.6448C21.5679 18.1232 17.1191 19.3165 13.6406 17.3097C10.1618 15.3026 8.96886 10.8539 10.9758 7.37524L12.2961 5.09472C12.2962 5.09454 12.296 5.09489 12.2961 5.09472ZM21.4802 3.72941C18.719 2.1367 15.188 3.08384 13.5951 5.84483L12.2751 8.12483C12.275 8.12499 12.2752 8.12466 12.2751 8.12483C10.6824 10.8861 11.6293 14.4175 14.3902 16.0104C17.1515 17.6035 20.6828 16.6564 22.2758 13.8952L23.5949 11.6168C23.5952 11.6163 23.5954 11.6159 23.5957 11.6154C25.1793 8.85338 24.2311 5.32193 21.4802 3.72941Z" fill="#00A6ED"/>
<path d="M19.7658 27.05C19.4558 27.6 18.6958 27.69 18.2658 27.22L16.2002 24.96L16.6058 24.2L19.3958 25.77C19.8558 26.03 20.0158 26.6 19.7658 27.05Z" fill="#D3D3D3"/>
<path d="M20.8757 22.57C21.4957 22.69 21.8157 23.39 21.5057 23.94C21.2557 24.39 20.6857 24.55 20.2357 24.3L19.7461 24.0304L20.3157 24.35C20.7157 24.58 20.8657 25.09 20.6357 25.5C20.4057 25.9 19.8957 26.05 19.4857 25.83L16.6157 24.22L17.4354 22.7584L17.4202 22.75L17.8802 21.97L20.8757 22.57Z" fill="#F4F4F4"/>
<path d="M15.0257 22.35C15.4857 21.52 16.5357 21.23 17.3657 21.69L17.8757 21.97L16.1957 24.96L15.6857 24.68C14.8557 24.22 14.5657 23.17 15.0257 22.35Z" fill="#F70A8D"/>
</svg>

<svg xmlns="http://www.w3.org/2000/svg" width="32" height="32" fill="none"><path fill="#0074BA" d="M6.616 29.32c-.58-.34-.78-1.08-.45-1.67l6.69-11.58 2.12 1.22-6.69 11.58c-.34.58-1.09.78-1.67.45Z"/><path fill="#533566" d="M6.166 27.65c-.33.59-.13 1.33.45 1.67.58.33 1.33.13 1.67-.45l2.9-5.022-2.115-1.227-2.905 5.029Z"/><path fill="#BEBEBE" d="M18.916 1.71c.161.094.215.3.12.46l-1.102 1.877 2.195 1.268 1.106-1.886a.337.337 0 1 1 .581.342l-1.103 1.88 2.204 1.274 1.108-1.886a.337.337 0 0 1 .581.342l-1.105 1.881 1.603.926a.337.337 0 1 1-.337.584l-1.608-.928-1.25 2.126 2.075 1.198a.337.337 0 1 1-.337.584l-2.079-1.2-1.25 2.127 2.096 1.209a.337.337 0 0 1-.337.584l-2.101-1.212-1.252 2.13 1.66.958a.337.337 0 1 1-.337.584l-1.664-.96-.917 1.559a.337.337 0 1 1-.581-.342l.913-1.555-2.198-1.268-1.123 1.915a.337.337 0 0 1-.582-.342l1.12-1.91-2.198-1.269-.91 1.55a.337.337 0 0 1-.582-.34l.908-1.547-1.596-.92a.337.337 0 0 1 .337-.585l1.6.923 1.25-2.128-1.977-1.14a.337.337 0 0 1 .337-.585l1.982 1.143L15.42 7l-2.002-1.157a.337.337 0 1 1 .337-.584l2.006 1.159 1.249-2.125-1.662-.96a.337.337 0 0 1 .337-.584l1.666.962 1.105-1.88a.337.337 0 0 1 .461-.12ZM13.16 12.177l2.198 1.269 1.25-2.13-2.198-1.267-1.25 2.128Zm2.782 1.606 2.2 1.269 1.25-2.13-2.2-1.269-1.25 2.13Zm5.043-3.57-2.202-1.272-1.25 2.13 2.201 1.27 1.251-2.128Zm-2.786-1.61-2.195-1.268-1.252 2.132 2.197 1.267 1.25-2.13Zm-1.854-1.85 2.196 1.269 1.247-2.127-2.194-1.267-1.249 2.125Zm2.78 1.606 2.202 1.272 1.249-2.126-2.204-1.272-1.247 2.126Z"/><path fill="#00A6ED" d="M12.296 5.095A7.274 7.274 0 0 1 22.23 2.43h.001c3.468 2.008 4.66 6.456 2.665 9.933l-.002.003-1.319 2.279a7.274 7.274 0 0 1-12.6-7.27l1.321-2.28Zm9.184-1.366a5.774 5.774 0 0 0-7.885 2.116l-1.32 2.28a5.774 5.774 0 0 0 10 5.77l1.32-2.278v-.002c1.584-2.762.636-6.293-2.115-7.886Z"/><path fill="#D3D3D3" d="M19.766 27.05a.932.932 0 0 1-1.5.17L16.2 24.96l.406-.76 2.79 1.57c.46.26.62.83.37 1.28Z"/><path fill="#F4F4F4" d="M20.876 22.57a.934.934 0 1 1-.64 1.73l-.49-.27.57.32c.4.23.55.74.32 1.15a.86.86 0 0 1-1.15.33l-2.87-1.61.82-1.462-.016-.008.46-.78 2.996.6Z"/><path fill="#F70A8D" d="M15.026 22.35a1.72 1.72 0 0 1 2.34-.66l.51.28-1.68 2.99-.51-.28a1.71 1.71 0 0 1-.66-2.33Z"/></svg>
